korla/status/symbolic/display-brightness-symbolic.svg

<svg xmlns="http://www.w3.org/2000/svg" width="16" height="16" version="1.1">
 <path style="fill:#dfdfdf" d="M 8,0.721 5.8105,3.0003 H 3 V 5.8108 L 0.7207,8.0003 3,10.221 V 13 H 5.8105 L 8,15.279 10.221,13 H 13 V 10.221 L 15.279,8.0003 13,6.0003 V 3.0003 H 10.221 Z M 8,4.0003 C 10.21,4.0003 12,5.7903 12,8.0003 12,10.21 10.21,12 8,12 5.79,12 4,10.21 4,8.0003 4,5.7903 5.79,4.0003 8,4.0003 Z M 8,5.0003 C 6.3431,5.0003 5,6.3434 5,8.0003 5,9.6572 6.3431,11 8,11 Z"/>
</svg>

<svg style="clip-rule:evenodd;fill-rule:evenodd;stroke-linejoin:round;stroke-miterlimit:2" version="1.1" viewBox="0 0 16 16" xmlns="http://www.w3.org/2000/svg">
 <path d="m8 0.721-2.189 2.279h-2.811v2.811l-2.279 2.189 2.279 2.221v2.779h2.811l2.189 2.279 2.221-2.279h2.779v-2.779l2.279-2.221-2.279-2v-3h-2.779l-2.221-2.279zm0 2.515c2.632 0 4.764 2.132 4.764 4.764s-2.132 4.764-4.764 4.764-4.764-2.132-4.764-4.764 2.132-4.764 4.764-4.764zm0 0.524c-2.342 0-4.24 1.898-4.24 4.24s1.898 4.24 4.24 4.24v-8.48z" style="fill-rule:nonzero;fill:rgb(223,223,223)"/>
</svg>
